icons/3_Generic/Books.svg

<svg width="1024" height="1024" viewBox="0 0 1024 1024" fill="none" xmlns="http://www.w3.org/2000/svg">
<g clip-path="url(#clip0_3_458)">
<path d="M512 1024C794.77 1024 1024 794.77 1024 512C1024 229.23 794.77 0 512 0C229.23 0 0 229.23 0 512C0 794.77 229.23 1024 512 1024Z" fill="#8C72BD"/>
<path d="M458.641 291.589H341.091C322.151 291.589 306.801 306.939 306.801 325.879V717.709C306.801 736.649 322.151 751.999 341.091 751.999H458.641C477.581 751.999 492.931 736.649 492.931 717.709V325.879C492.931 306.939 477.581 291.589 458.641 291.589ZM336.191 399.339H463.541V644.239H336.191V399.339ZM341.091 320.969H458.641C461.351 320.969 463.541 323.159 463.541 325.869V369.949H336.191V325.869C336.191 323.159 338.381 320.969 341.091 320.969ZM458.641 722.599H341.091C338.381 722.599 336.191 720.409 336.191 717.699V673.619H463.541V717.699C463.541 720.409 461.351 722.599 458.641 722.599ZM766.481 685.869L685.201 299.329C681.361 280.789 663.211 268.869 644.671 272.719C644.601 272.729 644.541 272.749 644.471 272.759L529.831 297.399C511.371 301.459 499.611 319.619 503.451 338.129L584.731 724.599C585.657 729.039 587.454 733.253 590.018 736.994C592.582 740.736 595.863 743.933 599.671 746.399C605.18 750.008 611.624 751.93 618.211 751.929C620.681 751.939 623.141 751.679 625.561 751.149L740.201 726.539C758.591 722.439 770.291 704.339 766.481 685.889V685.869ZM563.681 481.819L687.921 455.129L722.501 619.599L598.241 646.219L563.691 481.819H563.681ZM547.441 404.529L671.701 377.759L681.861 426.269L557.621 452.959L547.431 404.519L547.441 404.529ZM536.031 326.159L650.641 301.549C650.981 301.519 651.331 301.519 651.671 301.549C652.591 301.549 653.481 301.819 654.241 302.329C655.381 303.049 656.171 304.209 656.421 305.539L665.601 349.179L541.391 375.679L532.231 332.139C531.631 329.429 533.331 326.749 536.031 326.119V326.169V326.159ZM733.931 697.909L619.291 722.599C618.051 722.869 616.751 722.639 615.691 721.939C615.126 721.582 614.641 721.113 614.266 720.561C613.891 720.009 613.634 719.385 613.511 718.729L604.331 675.089L728.541 648.399L737.821 691.819C738.421 694.549 736.691 697.259 733.961 697.859H733.931V697.909Z" fill="white"/>
</g>
<defs>
<clipPath id="clip0_3_458">
<rect width="1024" height="1024" fill="white"/>
</clipPath>
</defs>
</svg>

<svg width="1024" height="1024" fill="none" xmlns="http://www.w3.org/2000/svg"><g clip-path="url(#a)"><path d="M512 1024c282.77 0 512-229.23 512-512S794.77 0 512 0 0 229.23 0 512s229.23 512 512 512Z" fill="#8C72BD"/><path d="M458.641 291.589h-117.55c-18.94 0-34.29 15.35-34.29 34.29v391.83c0 18.94 15.35 34.29 34.29 34.29h117.55c18.94 0 34.29-15.35 34.29-34.29v-391.83c0-18.94-15.35-34.29-34.29-34.29Zm-122.45 107.75h127.35v244.9h-127.35v-244.9Zm4.9-78.37h117.55c2.71 0 4.9 2.19 4.9 4.9v44.08h-127.35v-44.08c0-2.71 2.19-4.9 4.9-4.9Zm117.55 401.63h-117.55c-2.71 0-4.9-2.19-4.9-4.9v-44.08h127.35v44.08c0 2.71-2.19 4.9-4.9 4.9Zm307.84-36.73-81.28-386.54c-3.84-18.54-21.99-30.46-40.53-26.61-.07.01-.13.03-.2.04l-114.64 24.64c-18.46 4.06-30.22 22.22-26.38 40.73l81.28 386.47a34.322 34.322 0 0 0 14.94 21.8 33.824 33.824 0 0 0 18.54 5.53c2.47.01 4.93-.25 7.35-.78l114.64-24.61c18.39-4.1 30.09-22.2 26.28-40.65v-.02Zm-202.8-204.05 124.24-26.69 34.58 164.47-124.26 26.62-34.55-164.4h-.01Zm-16.24-77.29 124.26-26.77 10.16 48.51-124.24 26.69-10.19-48.44.01.01Zm-11.41-78.37 114.61-24.61c.34-.03.69-.03 1.03 0 .92 0 1.81.27 2.57.78 1.14.72 1.93 1.88 2.18 3.21l9.18 43.64-124.21 26.5-9.16-43.54c-.6-2.71 1.1-5.39 3.8-6.02v.05-.01Zm197.9 371.75-114.64 24.69c-1.24.27-2.54.04-3.6-.66a4.862 4.862 0 0 1-2.18-3.21l-9.18-43.64 124.21-26.69 9.28 43.42c.6 2.73-1.13 5.44-3.86 6.04h-.03v.05Z" fill="#fff"/></g><defs><clipPath id="a"><path fill="#fff" d="M0 0h1024v1024H0z"/></clipPath></defs></svg>
